X:557
T: NACHTIGALL ICH HOER DICH SINGEN
N: E0529
O: Europa, Mitteleuropa, Deutschland
R: Liebes - Lied
M: 3/4
L: 1/16
K: F
C2C2 | F4A4A2G2 | G2F2z2
F2F2G2 | A4c4c2B2 | B2A2z8
c2cAF4c4 | BcdBG4z4
C2E2G4B4 | A2cAF2A2G2B2 | A2d2c4
cBAG | F4A4AGFE | F4z4

